static/app-icons/dark-theme/BlockchainTrustedIdentity.svg

<svg xmlns="http://www.w3.org/2000/svg" viewBox="0 0 32 32"><defs><linearGradient id="linear-gradient" x1="-1833.5" y1="-22.5" x2="-1819.5" y2="-22.5" gradientTransform="matrix(1 0 0 -1 1835.5 4.5)" gradientUnits="userSpaceOnUse"><stop offset=".001" stop-opacity="0"/><stop offset=".9"/></linearGradient><linearGradient id="linear-gradient-2" y1="32" x2="32" gradientUnits="userSpaceOnUse"><stop offset=".1" stop-color="#3ddbd9"/><stop offset=".9" stop-color="#4589ff"/></linearGradient><style>.cls-1{fill:#fff}.cls-5{fill:#f4f4f4}</style><mask id="mask" x="0" y="0" width="32" height="32" maskUnits="userSpaceOnUse"><path class="cls-1" d="M6 10h7v2H6zM6 14h4v2H6z"/><path class="cls-1" d="M3 26h25V6H4v17H2V6a2 2 0 012-2h24a2 2 0 012 2v20a2 2 0 01-2 2H3z"/><path transform="rotate(-180 9 27)" fill="url(#linear-gradient)" d="M2 25h14v4H2z" id="Gradients_black_" data-name="Gradients (black)"/></mask></defs><g id="Layer_2" data-name="Layer 2"><g id="Dark_theme_icons" data-name="Dark theme icons"><g mask="url(#mask)"><path id="Color" fill="url(#linear-gradient-2)" d="M0 0h32v32H0z"/></g><path class="cls-5" d="M23 18h-6a3 3 0 00-3 3v2h2v-2a1 1 0 011-1h6a1 1 0 011 1v2h2v-2a3 3 0 00-3-3zM20 17a4 4 0 10-4-4 4 4 0 004 4zm0-6a2 2 0 11-2 2 2 2 0 012-2z"/></g></g></svg>

<svg xmlns="http://www.w3.org/2000/svg" xmlns:xlink="http://www.w3.org/1999/xlink" viewBox="0 0 32 32"><defs><style>.cls-1{fill:#fff;}.cls-2{fill:url(#linear-gradient);}.cls-3{mask:url(#mask);}.cls-4{fill:url(#linear-gradient-2);}.cls-5{fill:#f4f4f4;}</style><linearGradient id="linear-gradient" x1="-1833.5" y1="-22.5" x2="-1819.5" y2="-22.5" gradientTransform="matrix(1, 0, 0, -1, 1835.5, 4.5)" gradientUnits="userSpaceOnUse"><stop offset="0.001" stop-opacity="0"/><stop offset="0.9"/></linearGradient><mask id="mask" x="0" y="0" width="32" height="32" maskUnits="userSpaceOnUse"><rect class="cls-1" x="6" y="10" width="7" height="2"/><rect class="cls-1" x="6" y="14" width="4" height="2"/><path class="cls-1" d="M3,26H28V6H4V23H2V6A2,2,0,0,1,4,4H28a2,2,0,0,1,2,2V26a2,2,0,0,1-2,2H3Z"/><g id="Gradients_black_" data-name="Gradients (black)"><rect class="cls-2" x="2" y="25" width="14" height="4" transform="translate(18 54) rotate(-180)"/></g></mask><linearGradient id="linear-gradient-2" y1="32" x2="32" gradientUnits="userSpaceOnUse"><stop offset="0.1" stop-color="#3ddbd9"/><stop offset="0.9" stop-color="#4589ff"/></linearGradient></defs><g id="Layer_2" data-name="Layer 2"><g id="Dark_theme_icons" data-name="Dark theme icons"><g class="cls-3"><rect id="Color" class="cls-4" width="32" height="32"/></g><path class="cls-5" d="M23,18H17a3,3,0,0,0-3,3v2h2V21a1,1,0,0,1,1-1h6a1,1,0,0,1,1,1v2h2V21A3,3,0,0,0,23,18Z"/><path class="cls-5" d="M20,17a4,4,0,1,0-4-4A4,4,0,0,0,20,17Zm0-6a2,2,0,1,1-2,2A2,2,0,0,1,20,11Z"/></g></g></svg>
